qml/icons/fallback/profile-offline-symbolic.svg

<?xml version="1.0" encoding="UTF-8" standalone="no"?>
<!-- Generator: Adobe Illustrator 17.0.1, SVG Export Plug-In . SVG Version: 6.00 Build 0)  -->

<svg
   xmlns:dc="http://purl.org/dc/elements/1.1/"
   xmlns:cc="http://creativecommons.org/ns#"
   xmlns:rdf="http://www.w3.org/1999/02/22-rdf-syntax-ns#"
   xmlns:svg="http://www.w3.org/2000/svg"
   xmlns="http://www.w3.org/2000/svg"
   xmlns:sodipodi="http://sodipodi.sourceforge.net/DTD/sodipodi-0.dtd"
   xmlns:inkscape="http://www.inkscape.org/namespaces/inkscape"
   version="1.1"
   id="Layer_1"
   x="0px"
   y="0px"
   width="64px"
   height="64px"
   viewBox="0 0 64 64"
   style="enable-background:new 0 0 64 64;"
   xml:space="preserve"
   sodipodi:docname="profile-offline-symbolic.svg"
   inkscape:export-filename="/home/mo/Dokumente/Pure Maps/missing/profile_offline.png"
   inkscape:export-xdpi="132"
   inkscape:export-ydpi="132"
   inkscape:version="0.92.4 5da689c313, 2019-01-14"><metadata
   id="metadata21"><rdf:RDF><cc:Work
       rdf:about=""><dc:format>image/svg+xml</dc:format><dc:type
         rdf:resource="http://purl.org/dc/dcmitype/StillImage" /><dc:title></dc:title></cc:Work></rdf:RDF></metadata><defs
   id="defs19">
	
	
	

		
		
	</defs><sodipodi:namedview
   pagecolor="#ffffff"
   bordercolor="#666666"
   borderopacity="1"
   objecttolerance="20"
   gridtolerance="5"
   guidetolerance="15"
   inkscape:pageopacity="0"
   inkscape:pageshadow="2"
   inkscape:window-width="2880"
   inkscape:window-height="1506"
   id="namedview17"
   showgrid="true"
   inkscape:zoom="12.993822"
   inkscape:cx="41.182496"
   inkscape:cy="31.828865"
   inkscape:window-x="0"
   inkscape:window-y="0"
   inkscape:window-maximized="1"
   inkscape:current-layer="Layer_1"
   inkscape:showpageshadow="false"
   showborder="true"
   inkscape:snap-perpendicular="true"
   inkscape:snap-path-clip="true"
   showguides="true"
   inkscape:guide-bbox="true"><inkscape:grid
     type="xygrid"
     id="grid833" /><sodipodi:guide
     position="64,10"
     orientation="1,0"
     id="guide835"
     inkscape:locked="false" /></sodipodi:namedview>
<rect
   y="0"
   x="0"
   height="64"
   width="64"
   style="opacity:0;fill:#ffffff"
   id="icon-m-transfer_1_" /><path
   style="opacity:1;fill:#000000;stroke-width:1.34133506"
   d="M 27.102442,31 H 2.9584108 C 1.7538922,31 0.78678936,30.505047 0.30793263,29.639886 -0.17092406,28.776066 -0.08105391,27.69495 0.55742105,26.672853 L 12.473842,7.5641913 c 0.62238,-0.9979531 1.554607,-1.5707031 2.557926,-1.5707031 1.003319,0 1.935546,0.57275 2.557926,1.5707031 l 11.91642,19.1073207 c 0.637134,1.022097 0.728344,2.104554 0.249488,2.967033 C 29.274062,30.505047 28.30696,31 27.102442,31 Z"
   id="path9"
   inkscape:connector-curvature="0"
   sodipodi:nodetypes="sscccscccs" />
<path
   style="opacity:1;fill:#000000;stroke-width:3.95798779"
   d="M 30,4 C 30,1.7925464 28.31563,9.8796148e-4 26.235634,9.8796148e-4 H 3.7646953 C 1.6846973,9.8796148e-4 3.3228864e-4,1.7925464 3.3228864e-4,4 c 0,2.2074536 1.68436501136,3.999012 3.76436301136,3.999012 H 26.235634 C 28.31563,7.999012 30,6.2074536 30,4 Z"
   id="path816"
   inkscape:connector-curvature="0"
   sodipodi:nodetypes="sccsccs" /><path
   sodipodi:nodetypes="sscccscccs"
   inkscape:connector-curvature="0"
   id="path835"
   d="m 36.919106,32.993488 h 24.144031 c 1.204519,0 2.171622,0.494953 2.650478,1.360114 0.478857,0.86382 0.388987,1.944936 -0.249488,2.967033 L 51.547706,56.429297 C 50.925326,57.42725 49.993099,58 48.98978,58 47.986461,58 47.054234,57.42725 46.431854,56.429297 L 34.515434,37.321976 C 33.8783,36.299879 33.78709,35.217422 34.265946,34.354943 c 0.48154,-0.866502 1.448642,-1.361455 2.65316,-1.361455 z"
   style="opacity:1;fill:#000000;stroke-width:1.34133506" /><path
   sodipodi:nodetypes="sccsccs"
   inkscape:connector-curvature="0"
   id="path827"
   d="m 64,60 c 0,-2.207454 -1.68437,-3.999012 -3.764366,-3.999012 H 37.764695 c -2.079998,0 -3.764363,1.791558 -3.764363,3.999012 0,2.207454 1.684365,3.999012 3.764363,3.999012 H 60.235634 C 62.31563,63.999012 64,62.207454 64,60 Z"
   style="opacity:1;fill:#000000;stroke-width:3.95798779" /></svg>

<svg xmlns="http://www.w3.org/2000/svg" width="64" height="64" style="enable-background:new 0 0 64 64" xml:space="preserve"><path style="opacity:1;fill:#000;stroke-width:1.34133506" d="M27.102 31H2.958c-1.204 0-2.171-.495-2.65-1.36-.479-.864-.39-1.945.25-2.967L12.473 7.564c.622-.998 1.554-1.57 2.558-1.57 1.003 0 1.935.572 2.558 1.57l11.916 19.108c.637 1.022.728 2.104.25 2.967-.482.866-1.449 1.361-2.654 1.361Z"/><path style="opacity:1;fill:#000;stroke-width:3.95798779" d="M30 4C30 1.793 28.316.001 26.236.001H3.765C1.685.001 0 1.793 0 4s1.685 3.999 3.765 3.999h22.47C28.316 7.999 30 6.207 30 4Z"/><path d="M36.92 32.993h24.143c1.205 0 2.172.495 2.65 1.36.48.864.39 1.946-.249 2.968L51.548 56.429C50.925 57.427 49.993 58 48.99 58c-1.004 0-1.936-.573-2.558-1.57L34.515 37.321c-.637-1.022-.728-2.105-.25-2.967.482-.867 1.45-1.362 2.654-1.362z" style="opacity:1;fill:#000;stroke-width:1.34133506"/><path d="M64 60c0-2.207-1.684-3.999-3.764-3.999H37.765C35.685 56.001 34 57.793 34 60s1.685 3.999 3.765 3.999h22.47C62.316 63.999 64 62.207 64 60Z" style="opacity:1;fill:#000;stroke-width:3.95798779"/></svg>
